X:509
T:Fy,Nay,Prithee John. (p)1703.PLFD.509
M:4/4
L:1/8
Q:1/2=100
S:Playford, Dancing Master,12th Ed.,1703.
O:England
Z:Chris Partington.
K:C
c3e dBG2|A3c BGE2|F3A GEc2|F2G2C4|
|:cggc BggB|AffA GeeG|FddF EccE|D2B2c4:|
|:geca fdBg|ecAf dBGe|cAFd BGEe|a2g>fe4:|
